_uploads/ornament-mark-solid.svg

<svg width="40" height="40" viewBox="0 0 40 40" fill="none" xmlns="http://www.w3.org/2000/svg">
<path d="M20 40C31.0457 40 40 31.0457 40 20C40 8.9543 31.0457 0 20 0C8.9543 0 0 8.9543 0 20C0 31.0457 8.9543 40 20 40Z" fill="black"/>
<path d="M18.8 10.32H21.25V16L20.79 24.51H19.25L18.8 16V10.32ZM21.62 29.72H18.42V26.84H21.62V29.72Z" fill="white"/>
</svg>

<svg width="40" height="40" fill="none" xmlns="http://www.w3.org/2000/svg"><path d="M20 40c11.046 0 20-8.954 20-20S31.046 0 20 0 0 8.954 0 20s8.954 20 20 20z" fill="#000"/><path d="M18.8 10.32h2.45V16l-.46 8.51h-1.54L18.8 16v-5.68zm2.82 19.4h-3.2v-2.88h3.2v2.88z" fill="#fff"/></svg>
